geofa_plugin/geofa_symboler/Friluftsliv, punkt/BUESKYDNING.svg

<svg xmlns="http://www.w3.org/2000/svg" width="5.5mm" height="5.5mm" viewBox="0 0 15.591 15.591">
  <rect width="15.591" height="15.591" rx="7.795" fill="#427c7f"/>
  <g>
    <path d="M9.148,1.984a.362.362,0,0,0-.362.361c0,.013.007.025.008.038V4.912H4.528a.56.56,0,0,0-.561.561c0,.367.561.56.561.56L5.4,6.4,5.4,8.18l-.618,2.836s-.723,1.878-.725,1.915a.53.53,0,0,0,.289.5.518.518,0,0,0,.372.028A.536.536,0,0,0,5,13.267c.192-.249.8-1.311.8-1.311l.7-1.731.705,1.235s.6,1.708.619,1.753a.549.549,0,0,0,.154.257.495.495,0,0,0,.72-.039.485.485,0,0,0,.139-.285c0-.022-.5-2.182-.5-2.182l-.7-2.14.184-2.585.97-.064V8.562c0,.013-.008.024-.008.038a.362.362,0,0,0,.362.361,3.489,3.489,0,1,0,0-6.977Zm.128,6.241V6.143l1.659-.11a.561.561,0,1,0,0-1.121H9.276V2.72a2.755,2.755,0,0,1,0,5.5Z" fill="#fff"/>
    <path d="M6.748,4.483a1,1,0,1,0-1-1A1,1,0,0,0,6.748,4.483Z" fill="#fff"/>
  </g>
</svg>

<?xml version="1.0" encoding="UTF-8"?>
<svg xmlns="http://www.w3.org/2000/svg" viewBox="0 0 15.59 15.59">
  <defs>
    <style>
      .cls-1 {
        fill: #071f39;
      }

      .cls-1, .cls-2 {
        stroke-width: 0px;
      }

      .cls-2 {
        fill: #fff;
      }
    </style>
  </defs>
  <g id="Cirkel">
    <rect class="cls-1" x="0" y="0" width="15.59" height="15.59" rx="7.8" ry="7.8"/>
  </g>
  <g id="ICONS">
    <g>
      <path class="cls-2" d="M9.15,1.98c-.2,0-.36.16-.36.36,0,.01,0,.02,0,.04v2.53h-4.27c-.31,0-.56.25-.56.56,0,.37.56.56.56.56l.87.37v1.78s-.61,2.84-.61,2.84c0,0-.72,1.88-.73,1.91,0,.03,0,.16.07.3.08.14.2.19.22.21.17.08.33.04.37.03.16-.05.25-.16.27-.19.19-.25.8-1.31.8-1.31l.7-1.73.7,1.24s.61,1.71.62,1.75c.01.05.05.16.15.26.03.03.18.15.38.13.19-.02.3-.14.34-.17.04-.04.13-.14.14-.28,0-.02-.5-2.18-.5-2.18l-.7-2.14.18-2.59.97-.06v2.39s0,.02,0,.04c0,.2.16.36.36.36,1.92,0,3.49-1.56,3.49-3.49s-1.56-3.49-3.49-3.49ZM9.28,8.23v-2.08l1.66-.11c.31,0,.56-.25.56-.56s-.25-.56-.56-.56h-1.66v-2.19c1.46.07,2.64,1.27,2.64,2.75s-1.17,2.68-2.64,2.75Z"/>
      <path class="cls-2" d="M6.75,4.48c.55,0,1-.45,1-1s-.45-1-1-1-1,.45-1,1,.45,1,1,1Z"/>
    </g>
  </g>
</svg>
